X: 10112
T: Difyrrwch Gwyr Mawddwy
R: barndance
M: 4/4
K: Dmajor
de|:f3 g f2 e2|f2 d2 d2 A2|BcdB A2 {B}AG|F3 G A2 F2|
G3 A B2 AG|F2 d2 c2 B2|A3 A BAGF|1 E D5 de:|2 E D5 DE||
|:F3 D F2 A2|BcdB A2 F2|B3 A B2 c2|defe d2 c2|
~B3 A Bcde|f3 e f2 A2|Bcde fedc|BB A4 de|
f3 g f2 e2|f2 d2 d2 A2|BcdB A2 {B}AG|F3 G A2 F2|
G3 A B2 AG|F2 d2 c2 B2|A3 A BAGF|E2 D4 DE:|

